X:105
T:Eleno Mome (2)
M:13/8
O:Bulgaria
Q:1/4=100
Z:Richard Robinson 
%%TUNEURL: http://www.leeds.ac.uk/music/Info/RRTuneBk/gettune/00000680.html
%%ID:00000680
K:C
G2AB c BA/|B2Bd c BA/|G2AB c BA/|B2Bd c BA/|
G2BA G FE/|(E2E2) c BA/|\
G2BA G FE/|(E2E2) E Ez/|
c>c BA G FE/|(E2E2) c BA/|\
G2BA G FE/|(E2E2) E Ez/||
